X:761
L:1/8
Q:1/8=140
M:6/8
K:D
"^lively" d2 d dcB | A2 G F2 G | E2 A D2 d | c2 B A2 a |"^5" f2 e d2 e | f2 g a2 b | a2 f d2 e | 
 c2 d e2 f |"^9" ecA ecA | B2 c d2 e | d2 d edc | d3 d2 z ||"^13" afg a2 f | c2 B ABc | d2 B c2 a | 
 b2 g efg |"^17" a2 a aba | f2 f fgf | ded c2 d | ecA ABc |"^21" dcB AGF | G3- GAG | e2 e efe | 
 ecA A2 z |"^25" faf gbg | faf geg | fdf ecA | d3 d3 |]

